packages/bezier-icons/icons/check-all.svg

<svg width="24" height="24" viewBox="0 0 24 24" fill="none" xmlns="http://www.w3.org/2000/svg">
<path d="M23.2975 5.70277C22.9092 5.31453 22.2798 5.31453 21.8915 5.70277L11.3665 16.2278L7.07254 11.9338C6.68478 11.5461 6.05613 11.546 5.66824 11.9336C5.28017 12.3214 5.28003 12.9504 5.66793 13.3383L10.6595 18.3306C11.05 18.7212 11.6831 18.7212 12.0737 18.3307L23.2974 7.10877C23.6857 6.72054 23.6857 6.09103 23.2975 5.70277Z" fill="#313234"/>
<path d="M18.3322 5.7028C17.944 5.31455 17.3145 5.31457 16.9263 5.70284L10.6617 11.9683C10.2737 12.3563 10.2737 12.9853 10.6617 13.3733C11.0497 13.7613 11.6787 13.7613 12.0668 13.3733L18.3322 7.10875C18.7204 6.72053 18.7205 6.09105 18.3322 5.7028Z" fill="#313234"/>
<path d="M0.702514 13.3388C0.314535 12.9508 0.314535 12.3218 0.702515 11.9338C1.09049 11.5458 1.71953 11.5458 2.10751 11.9338L7.10452 16.9308C7.4925 17.3188 7.4925 17.9478 7.10451 18.3358C6.71653 18.7238 6.0875 18.7238 5.69952 18.3358L0.702514 13.3388Z" fill="#313234"/>
</svg>

<svg xmlns="http://www.w3.org/2000/svg" width="24" height="24" fill="none" viewBox="0 0 24 24"><path fill="#313234" d="M23.298 5.703a.994.994 0 0 0-1.406 0L11.367 16.228l-4.294-4.294a.993.993 0 0 0-1.405 1.404l4.991 4.993a1 1 0 0 0 1.415 0L23.297 7.109a.994.994 0 0 0 0-1.406"/><path fill="#313234" d="M18.332 5.703a.994.994 0 0 0-1.406 0l-6.264 6.265a.993.993 0 1 0 1.405 1.405l6.265-6.264a.994.994 0 0 0 0-1.406M.703 13.339a.993.993 0 0 1 1.405-1.405l4.997 4.997A.993.993 0 1 1 5.7 18.336z"/></svg>
